X:281
T:In These Our Days So Perilous
%%stretchlast false
M:4/4
L:1/4
K:Eb clef=C1
"^ii"[FAcf]2 [FAcf] "^ii¹"[A,Acf] | "^vi"[CGce] "^V"[B,Bdf] "^IV"[A,cea]/4 "^vi+"[A,ca]/4 "^ii¹"[A,cfa]/4 "^♯iii"[B,cfa]/4 [Ccfg]/ "^VI"[Cc=eg]/ | "^♯iii"[F,Af]2 "^ii"[Fcfa]2 | "^I"[Eegb] "^iii"[GBdb] "^ii"[Fcfa] "^v¹"[_DFfb] | "^ii²"[CAfc'] "^VI"[CG=ec']/ "^vii7³"[CFdc']/ "^VI"[CG=ec']2 | "^vi"[CGec'] "^IV"[A,Aec'] "^I"[EGeb]/ [EGeb]/ "^vi"[CGec'] | "^vii°"[DFfa] "^v"[B,_dfb] "^ii²"[Ccfa] "^VI"[Cc=eg]/ "^VI7"[CB=eg]/ | "^♯iii"[F,Af]2 "^ii"[FAcf] "^vi"[CGce] | "^ii"[FAcf]3/4 [FGcf]/4 "^♭VII"[_DFfa]3/4 "^ii7²"[CFea]/4 "^v"[B,F_db]3/4 [CFcb]/4 "^v¹"[_DFBf] | "^V/ii"[CGc=e] "^ii"[F,Acf] [F,Acf]2 | "^I"[E,Geb]2 "^IV"[A,Aec']/ "^IVmaj7"[A,Gec']/4 "^ii7¹"[A,Fec']/4 "^I"[E,Ggb] | "^ii"[F,cfa] [Fcf]/ "^v"[FBf]/ "^ii"[FAca] "^iii°¹"[B,B_dg]/ "^v"[B,B_df]/ | "^ii"[Fca] [Fca]/ "^IVmaj7²"[EGca]/ "^♭VII"[_DA_df]/ "^ii²"[CA_df]/ "^v"[B,B_df] | "^II"[F,=Acf]4 |]
